includes/public/svg/flags/png.svg

<?xml version="1.0" encoding="UTF-8"?>
<svg xmlns="http://www.w3.org/2000/svg" xmlns:xlink="http://www.w3.org/1999/xlink" width="600" height="450" viewBox="0 0 768 576">
<title>Flag of Papua New Guinea</title>
<rect width="768" height="576" fill="#000"/>
<path d="M0,0H768V576z" fill="#ce1126"/>
<path d="M475.48467,167.35351C469.81245,174.67996 456.38967,159.98385 440.30967,159.64818C424.22967,159.31251 412.839,175.05784 408.14967,180.41851C403.46034,185.77918 388.38534,213.91818 388.72,216.93318C389.05467,219.94818 398.10067,208.55851 401.45034,206.54851C401.785,210.56851 397.765,215.25885 398.77,216.59851C399.775,217.93818 410.49433,208.55851 414.17967,208.22385C415.18467,210.90418 412.16967,213.58351 413.17467,217.60351C414.51534,218.94318 420.54534,210.90318 424.56534,209.22885C425.23467,212.24385 420.88,217.93918 423.22467,221.62351C424.9,221.95818 434.949,210.23385 438.29967,208.89318C441.65034,207.55251 436.62433,219.94818 438.29967,220.95318C441.31467,218.94318 450.69534,208.22284 453.71034,206.88318C456.72534,205.54351 453.37567,220.61851 454.71534,220.61851C458.39967,217.93818 467.78034,205.20885 468.78534,203.19885C469.79034,201.18885 467.78034,222.62851 478.165,234.01918C488.54967,245.40985 504.29601,258.47385 505.97034,258.47385C507.98034,254.78851 505.30101,247.08418 506.97534,247.41885C511.66467,252.44385 520.375,259.81351 522.385,259.81351C524.395,259.81351 521.04433,251.77351 523.72467,251.77351C529.08534,256.79851 544.495,276.56385 574.645,285.60885C572.635,279.91351 568.27933,274.88851 567.94467,272.20918C569.95467,272.54385 576.99067,275.89452 578.33034,275.55885C579.67,275.22318 563.59,255.45885 564.595,252.77851C568.28034,252.44385 569.95567,254.78851 571.29534,253.11318C569.62,250.43385 555.55,234.68851 555.55,231.00318C555.55,227.31784 559.90567,231.67351 561.24534,231.00318C562.585,230.33284 555.88567,216.26284 557.22534,214.58851C558.565,212.91418 573.30433,223.63351 576.98967,223.63351C580.675,223.63351 577.99467,210.56851 579.67,209.89818C581.34534,209.22784 593.74101,216.93318 596.42034,216.93318C599.09967,216.93318 598.765,211.23784 599.77,211.90818C600.775,212.57851 629.92,241.72351 619.87,275.89351C609.82,300.34918 589.72101,313.41418 560.24034,302.69385C561.91467,305.37418 577.66,318.43918 594.745,313.74885C611.83,309.05851 632.59933,295.65885 630.25467,262.15918C627.91,228.65952 616.854,223.96918 615.17967,218.94418C613.50534,213.91918 617.86101,220.28385 621.54534,221.62452C625.22967,222.96519 620.875,214.58851 619.87,210.90318C618.865,207.21784 630.925,218.60851 633.94,219.61351C636.955,220.61851 626.905,192.14385 623.89,190.13385C620.875,188.12385 626.905,190.80318 628.915,191.47351C630.925,192.14385 610.48933,160.31851 606.13467,160.31851C601.78,160.31851 609.819,158.64318 612.16467,158.64318C614.51034,158.64318 588.71601,137.87284 584.36034,137.87284C580.00467,137.87284 593.739,132.51217 595.07967,132.17751C597.42534,132.51217 565.26534,115.09251 536.455,132.51217C534.77967,131.17351 550.02351,120.62101 550.525,116.09851C550.69284,114.92568 545.50101,112.41318 545.16534,111.07351C544.82967,109.73385 553.20534,105.71386 553.54,102.69886C551.53,100.01853 547.84467,101.02352 545.83467,100.3542C545.33317,97.841696 552.87067,91.643861 552.20034,88.964531C551.69784,87.457031 546.16933,86.954531 544.82967,87.959531C543.49,88.964531 548.34817,80.924531 547.51,78.579866C546.84067,77.574866 544.16034,78.245201 541.48,78.914531C539.80467,78.579866 550.19034,64.174196 548.18034,62.164196C546.17034,60.154196 518.02933,76.903526 507.64467,95.663861C497.26,114.42418 505.30101,129.49918 503.96034,135.86385C502.61967,142.22851 500.94433,148.59418 496.58967,148.59418C492.235,148.59418 482.18601,141.89385 478.83534,138.54418C475.48467,135.19452 474.81534,132.84885 470.125,131.50918C465.43467,130.16952 454.71534,134.18952 450.69534,134.52418C446.67534,134.85885 430.93,131.50918 429.925,132.51418C428.92,133.51918 445.33467,139.54918 449.02,141.55918C452.70534,143.56918 453.04101,146.24952 455.72034,147.92385C458.39967,149.59818 483.52467,156.96885 475.48467,167.35351zM573.64,214.58851C581.68,222.62851 635.95,258.80851 635.95,303.02851C635.95,347.24851 596.41933,345.90985 585.02967,344.56918C597.76,355.28851 646,353.27851 646,303.02851C646,258.80851 583.69,214.58851 575.65,210.56851C567.61,206.54851 565.6,206.54851 573.64,214.58851z" fill="#fcd116"/>
<g fill="#fff">
<path d="M220.254,418.599,231.709,381.748,243.164,419,213,396.168h37.418z"/>
<path id="sl" d="m192.418,178.496 -22.909,73.702 60.327,-44.862h-74.836l60.327,45.664z"/>
<use xlink:href="#sl" x="-88" y="112.504"/>
<use xlink:href="#sl" x="87.582" y="104.504"/>
<use xlink:href="#sl" y="264.504"/>
</g>
</svg>

<svg xmlns="http://www.w3.org/2000/svg" xmlns:xlink="http://www.w3.org/1999/xlink" width="600" height="450" viewBox="0 0 768 576"><title>Flag of Papua New Guinea</title><path d="M0 0h768v576H0z"/><path d="M0 0h768v576z" fill="#ce1126"/><path d="M475.485 167.354c-5.673 7.326-19.095-7.37-35.175-7.706-16.08-.335-27.47 15.41-32.16 20.77-4.69 5.36-19.765 33.5-19.43 36.515.335 3.015 9.38-8.374 12.73-10.384.335 4.02-3.685 8.71-2.68 10.05 1.005 1.338 11.724-8.04 15.41-8.376 1.005 2.68-2.01 5.36-1.005 9.38 1.34 1.34 7.37-6.7 11.39-8.375.67 3.014-3.685 8.71-1.34 12.394 1.675.334 11.724-11.39 15.075-12.73 3.35-1.34-1.676 11.054 0 12.06 3.015-2.01 12.395-12.73 15.41-14.07 3.015-1.34-.334 13.735 1.005 13.735 3.685-2.682 13.065-15.41 14.07-17.42 1.005-2.01-1.005 19.43 9.38 30.82 10.385 11.39 26.13 24.454 27.805 24.454 2.01-3.685-.67-11.39 1.005-11.055 4.69 5.024 13.4 12.394 15.41 12.394s-1.34-8.04 1.34-8.04c5.36 5.025 20.77 24.79 50.92 33.835-2.01-5.696-6.366-10.72-6.7-13.4 2.01.334 9.046 3.685 10.385 3.35 1.34-.337-14.74-20.1-13.735-22.78 3.685-.336 5.36 2.01 6.7.333-1.675-2.68-15.745-18.424-15.745-22.11 0-3.685 4.356.67 5.695 0 1.34-.67-5.36-14.74-4.02-16.414 1.34-1.676 16.08 9.044 19.765 9.044 3.685 0 1.005-13.065 2.68-13.736 1.675-.67 14.07 7.035 16.75 7.035 2.68 0 2.345-5.695 3.35-5.025 1.005.67 30.15 29.816 20.1 63.986-10.05 24.455-30.15 37.52-59.63 26.8 1.675 2.68 17.42 15.745 34.505 11.055 17.085-4.69 37.854-18.09 35.51-51.59-2.345-33.5-13.4-38.19-15.075-43.216-1.675-5.025 2.68 1.34 6.365 2.68s-.67-7.035-1.675-10.72c-1.005-3.686 11.055 7.705 14.07 8.71 3.015 1.005-7.035-27.47-10.05-29.48-3.015-2.01 3.015.67 5.025 1.34 2.01.67-18.426-31.155-22.78-31.155-4.355 0 3.684-1.677 6.03-1.677 2.345 0-23.45-20.77-27.805-20.77s9.38-5.36 10.72-5.695c2.345.334-29.815-17.085-58.625.334-1.675-1.338 13.57-11.89 14.07-16.413.168-1.174-5.024-3.687-5.36-5.026-.335-1.34 8.04-5.36 8.375-8.375-2.01-2.68-5.695-1.676-7.705-2.346-.502-2.512 7.036-8.71 6.365-11.39-.502-1.507-6.03-2.01-7.37-1.004-1.34 1.005 3.518-7.035 2.68-9.38-.67-1.005-3.35-.335-6.03.335-1.675-.335 8.71-14.74 6.7-16.75-2.01-2.01-30.15 14.74-40.535 33.5-10.385 18.76-2.344 33.834-3.685 40.2-1.34 6.364-3.016 12.73-7.37 12.73-4.355 0-14.404-6.7-17.755-10.05-3.35-3.35-4.02-5.696-8.71-7.036-4.69-1.34-15.41 2.68-19.43 3.014-4.02.335-19.765-3.015-20.77-2.01-1.005 1.005 15.41 7.035 19.095 9.045 3.685 2.01 4.02 4.69 6.7 6.364 2.68 1.674 27.805 9.045 19.765 19.43zm98.155 47.235c8.04 8.04 62.31 44.22 62.31 88.44s-39.53 42.88-50.92 41.54c12.73 10.72 60.97 8.71 60.97-41.54 0-44.22-62.31-88.44-70.35-92.46-8.04-4.02-10.05-4.02-2.01 4.02z" fill="#fcd116"/><g fill="#fff"><path d="M220.254 418.6l11.455-36.852L243.163 419 213 396.168h37.418z"/><path id="a" d="M192.418 178.496l-22.91 73.702 60.328-44.862H155L215.327 253z"/><use xlink:href="#a" x="-88" y="112.504"/><use xlink:href="#a" x="87.582" y="104.504"/><use xlink:href="#a" y="264.504"/></g></svg>
